X: 1
T:Sruleen Geal
M:6/8
L:1/8
Q:80
C:Composed by T. Tully
S:Waltz
K:HP
|: {g}e/2d/2|
{gcecG}c{g}c/2A/2{g}d/2B/2{gAGAG}A{g}A/2e/2{g}c/2e/2|
"flick"a3/2e/2{g}c/2d/2e/2{g}e/2{A}e/2f/2{g}d/2c/2|  !
{gdedc}d{g}d/2e/2{g}c/2e/2{gBeBG}B{g}B/2e/2{g}c/2d/2|
e/2{g}e/2{A}e/2f/2{g}d/2e/2{gcecG}c{g}c/2A/2{g}e/2d/2{gcecG}c{g}c/2A/2{g
}d/2B/2{gAGAG}A{g}A/2e/2{g}c/2e/2|
"flick"a3/2e/2{g}c/2d/2e/2{g}e/2{A}e/2A/2{g}f/2g/2|  !
"flick"a3/2g/2{a}e/2c/2{gdedc}d{g}c/2e/2{g}B/2e/2|
{gAGAG}A{g}A/2B/2{gcd}c/2B/2{G}A2:| |:
{g}c/2d/2|  !
e/2{g}e/2{A}e/2f/2{g}d/2e/2{gcecG}c{g}c/2e/2{g}A/2{g}c/2|
f/2{g}f/2{e}f/2g/2{a}f/2e/2{gcecG}c{g}c/2A/2{g}e/2c/2|
{gdedc}d{g}d/2e/2{g}c/2e/2{gBeBG}B{g}B/2e/2{g}c/2B/2|  !
e/2{g}e/2{A}e/2f/2{g}d/2e/2{gcecG}c{g}c/2A/2{g}e/2A/2"flick"a3/2g/2{a}e/
2f/2{gcecG}c{g}c/2e/2{g}A/2{g}c/2|
f/2{g}f/2{e}f/2g/2{a}f/2e/2{gcecG}c{g}c/2A/2{g}f/2g/2|
"flick"a3/2g/2{a}e/2c/2{gdedG}d{g}c/2e/2{g}B/2e/2|  !
{gAGAG}A{g}A/2B/2{gcd}c/2B/2{G}A2:|
